_includes/icons/ios-gift-card.svg

<svg fill="#666" height="50" viewBox="0 0 50 50" width="50" xmlns="http://www.w3.org/2000/svg"><path d="m12.3125 1c-1.929687 0-3.367187.644531-4.21875 1.65625-.851562 1.011719-1.09375 2.269531-1.09375 3.34375 0 2.554688 1.382813 4.628906 3.28125 5.96875.585938.414063 1.207031.742188 1.875 1.03125h-11.15625v11h2v25h44v-25h2v-11h-11.15625c.667969-.289062 1.289063-.617187 1.875-1.03125 1.898438-1.339844 3.28125-3.414062 3.28125-5.96875 0-1.074219-.242187-2.332031-1.09375-3.34375-.851562-1.011719-2.289062-1.65625-4.21875-1.65625-1.996094 0-3.609375.84375-4.8125 2s-2.066406 2.613281-2.875 4-1.570312 2.71875-2.375 3.625c-.804687.90625-1.539062 1.375-2.625 1.375-1.085937 0-1.820312-.46875-2.625-1.375-.804687-.90625-1.566406-2.238281-2.375-3.625s-1.671875-2.84375-2.875-4-2.816406-2-4.8125-2zm0 2c1.464844 0 2.464844.53125 3.40625 1.4375s1.769531 2.199219 2.5625 3.5625 1.570313 2.78125 2.59375 3.9375c.019531.023438.042969.039063.0625.0625h-3.9375c-2.015625 0-4.097656-.601562-5.59375-1.65625-1.496094-1.054687-2.40625-2.480469-2.40625-4.34375 0-.753906.179688-1.5.625-2.03125.445313-.53125 1.175781-.96875 2.6875-.96875zm25.375 0c1.511719 0 2.242188.4375 2.6875.96875.445313.53125.625 1.277344.625 2.03125 0 1.863281-.910156 3.289063-2.40625 4.34375-1.496094 1.054688-3.578125 1.65625-5.59375 1.65625h-3.9375c.019531-.023437.042969-.039062.0625-.0625 1.023438-1.15625 1.800781-2.574219 2.59375-3.9375s1.621094-2.65625 2.5625-3.5625 1.941406-1.4375 3.40625-1.4375zm-34.6875 12h16v7h-16zm18 0h8v7.8125.09375.09375c-.007812.074219-.007812.144531 0 .21875v23.78125h-8v-23.8125c.007813-.0625.007813-.125 0-.1875.003906-.042969.003906-.082031 0-.125 0-.03125 0-.0625 0-.09375zm10 0h16v7h-16zm-26 9h14v23h-14zm26 0h14v23h-14z"/></svg>

<svg xmlns="http://www.w3.org/2000/svg" viewBox="0 0 50 50" width="50" height="50" fill="#666"><path d="M 12.3125 1 C 10.382813 1 8.945313 1.644531 8.09375 2.65625 C 7.242188 3.667969 7 4.925781 7 6 C 7 8.554688 8.382813 10.628906 10.28125 11.96875 C 10.867188 12.382813 11.488281 12.710938 12.15625 13 L 1 13 L 1 24 L 3 24 L 3 49 L 47 49 L 47 24 L 49 24 L 49 13 L 37.84375 13 C 38.511719 12.710938 39.132813 12.382813 39.71875 11.96875 C 41.617188 10.628906 43 8.554688 43 6 C 43 4.925781 42.757813 3.667969 41.90625 2.65625 C 41.054688 1.644531 39.617188 1 37.6875 1 C 35.691406 1 34.078125 1.84375 32.875 3 C 31.671875 4.15625 30.808594 5.613281 30 7 C 29.191406 8.386719 28.429688 9.71875 27.625 10.625 C 26.820313 11.53125 26.085938 12 25 12 C 23.914063 12 23.179688 11.53125 22.375 10.625 C 21.570313 9.71875 20.808594 8.386719 20 7 C 19.191406 5.613281 18.328125 4.15625 17.125 3 C 15.921875 1.84375 14.308594 1 12.3125 1 Z M 12.3125 3 C 13.777344 3 14.777344 3.53125 15.71875 4.4375 C 16.660156 5.34375 17.488281 6.636719 18.28125 8 C 19.074219 9.363281 19.851563 10.78125 20.875 11.9375 C 20.894531 11.960938 20.917969 11.976563 20.9375 12 L 17 12 C 14.984375 12 12.902344 11.398438 11.40625 10.34375 C 9.910156 9.289063 9 7.863281 9 6 C 9 5.246094 9.179688 4.5 9.625 3.96875 C 10.070313 3.4375 10.800781 3 12.3125 3 Z M 37.6875 3 C 39.199219 3 39.929688 3.4375 40.375 3.96875 C 40.820313 4.5 41 5.246094 41 6 C 41 7.863281 40.089844 9.289063 38.59375 10.34375 C 37.097656 11.398438 35.015625 12 33 12 L 29.0625 12 C 29.082031 11.976563 29.105469 11.960938 29.125 11.9375 C 30.148438 10.78125 30.925781 9.363281 31.71875 8 C 32.511719 6.636719 33.339844 5.34375 34.28125 4.4375 C 35.222656 3.53125 36.222656 3 37.6875 3 Z M 3 15 L 19 15 L 19 22 L 3 22 Z M 21 15 L 29 15 L 29 22.8125 C 29 22.84375 29 22.875 29 22.90625 C 29 22.9375 29 22.96875 29 23 C 28.992188 23.074219 28.992188 23.144531 29 23.21875 L 29 47 L 21 47 L 21 23.1875 C 21.007813 23.125 21.007813 23.0625 21 23 C 21.003906 22.957031 21.003906 22.917969 21 22.875 C 21 22.84375 21 22.8125 21 22.78125 Z M 31 15 L 47 15 L 47 22 L 31 22 Z M 5 24 L 19 24 L 19 47 L 5 47 Z M 31 24 L 45 24 L 45 47 L 31 47 Z"/></svg>
